X: 1
T: 'Al Tiruni
O: Israel
Z: John Chambers <jc@trillian.mit.edu>
M: 4/4
L: 1/8
K: Dm
|: "Dm"zF2E "B"FE "C7"DC | "Dm"zD2C "B"DE "C7"FG \
|  "Dm"zF2G AG AF | "G"G3 F/E/ "Dm"D4 :|
|| "C"zC2C CC DC | zC2C D2 "F"A,2 \
|  "C"zC2C CC DC | "F"zF2F "C"G2 "F"F2 |
|  "F"zA2A AA GF | "F"zA2A AA GF \
| "Dm"zF2F F2 "(C)"C2  | "B"FE "C7"DC "Dm"D2 D2 |]
%%sep 0 1 8cm
